X: 132032
T: Martin Cooney's
S: Boston CCE Newletter 3/05
L: 1/8
M: 6/8
R: jig
Q: 1/4=160
K: D
A| dcd AFA | BGB AFA | d2d AFD | A,CE GFE |
dcd AFA | BGB AFA | afd gec | ABc d2 :|
(3e/f/g/ | afd AFA | DFA dfd | gbg ecA | EAc efg |
(3fga f dAF | DFA dfd | gbg (3fga f |gec d2 :|
